material/.icons/material/sim-alert.svg

<svg xmlns="http://www.w3.org/2000/svg" viewBox="0 0 24 24"><path d="M13 13h-2V8h2m0 9h-2v-2h2m5-13h-8L4 8v12a2 2 0 002 2h12a2 2 0 002-2V4a2 2 0 00-2-2z"/></svg>

<?xml version="1.0" encoding="UTF-8"?><!DOCTYPE svg PUBLIC "-//W3C//DTD SVG 1.1//EN" "http://www.w3.org/Graphics/SVG/1.1/DTD/svg11.dtd"><svg xmlns="http://www.w3.org/2000/svg" xmlns:xlink="http://www.w3.org/1999/xlink" version="1.1" id="mdi-sim-alert" width="24" height="24" viewBox="0 0 24 24"><path d="M13,13H11V8H13M13,17H11V15H13M18,2H10L4,8V20A2,2 0 0,0 6,22H18A2,2 0 0,0 20,20V4A2,2 0 0,0 18,2Z" /></svg>
